icons/slice-line.svg

<svg width="24" height="24" fill="none" xmlns="http://www.w3.org/2000/svg"><g clip-path="url(#a)"><path d="m15.69 12.918 1.769 1.768c-6.01 6.01-10.96 6.01-15.203 4.596L17.812 3.726l3.536 3.535-5.657 5.657h-.001Zm-2.828 0 5.657-5.657-.707-.707L6.314 18.052c2.732.107 5.358-.907 8.267-3.416l-1.719-1.718Z" /></g><defs><clipPath id="a"><path fill="#fff" d="M0 0h24v24H0z"/></clipPath></defs></svg>

<svg xmlns="http://www.w3.org/2000/svg" width="24" height="24" fill="none"><g clip-path="url(#a)"><g><path fill="#121212" d="M15.69 12.918L17.459 14.686C11.449 20.696 6.499 20.696 2.256 19.282L17.812 3.72595L21.348 7.26095L15.691 12.918H15.69ZM12.862 12.918L18.519 7.26095L17.812 6.55395L6.314 18.052C9.046 18.159 11.672 17.145 14.581 14.636L12.862 12.918Z"/></g></g><defs><clipPath id="a"><rect width="24" height="24" fill="white"/></clipPath></defs></svg>
